X: 13330
T: Flat Cap
R: three-two
M: 3/2
K: Dmixolydian
|:DEFG A3D FGA2|c2E2- E2c2 EFGB|DEFG A2D2 F2A2|d2D2- D2A2 EFGB:|
|:DEFG A3c BAGE|c2E2- E2c2 E2G2|DEFG ABAF A2B^c|d2D2- D2A2 EFGE:|
|:f2d2 g2fe f2d2|c2e2- e2A2 efge|f2d2 g2fe f2e2|d2D2- D2A2 EFGB:|
|:defd efge fgaf|b2e2- e2^c2 efg2|defd efge agfe|d2D2- D2A2 EFGE:|
|:F2A2 G2B2 FGA2|c2E2- E2c2 EFG2|F2A2 GABG FGA^c|d2D2- D2G2 F2E2:|

